X:1
T:[ID 7-108]
T:[ID 7-108]
T:Bezeichnung standardisiert: Anglaise Angeloise
T:Urheber unbekannt Datum in der hier transkribierten schriftlichen Quelle: 1776 - 1791
C:Urheber unbekannt
C:Datum in der hier transkribierten schriftlichen Quelle: 1776 - 1791
L:1/8
M:2/4
K:G
V:1 treble 
V:1
 G/G/G/G/ G/G/G/G/ | GDGD | GBdB | cAFD | G/G/G/G/ G/G/G/G/ | GDGB | dcBA | G2 z2 :: gg g/f/e/d/ | %9
 ee e/d/c/B/ | cc c/B/A/G/ | A/c/A/F/ D2 | gg g/f/e/d/ | ee e/d/c/B/ | cAGF | G2 z2 :: d2 dd | %17
 edcB | g2 fe | e2 d2 | d2 dd | edcB | A2 AA | A2 z2 | d2 dd | edcB | g2 fe | e2 d2 | defg | fedc | %30
 B2 A2 | G2 z2 :| %32

